common/src/main/resources/files/plugins/datagrip/mariadbFileType.svg

<!--
  - The MIT License (MIT)
  -
  - Copyright (c) 2015-2024 Elior "Mallowigi" Boukhobza
  -
  - Permission is hereby granted, free of charge, to any person obtaining a copy
  - of this software and associated documentation files (the "Software"), to deal
  - in the Software without restriction, including without limitation the rights
  - to use, copy, modify, merge, publish, distribute, sublicense, and/or sell
  - copies of the Software, and to permit persons to whom the Software is
  - furnished to do so, subject to the following conditions:
  -
  - The above copyright notice and this permission notice shall be included in all
  - copies or substantial portions of the Software.
  -
  - THE SOFTWARE IS PROVIDED "AS IS", WITHOUT WARRANTY OF ANY KIND, EXPRESS OR
  - IMPLIED, INCLUDING BUT NOT LIMITED TO THE WARRANTIES OF MERCHANTABILITY,
  - FITNESS FOR A PARTICULAR PURPOSE AND NONINFRINGEMENT. IN NO EVENT SHALL THE
  - AUTHORS OR COPYRIGHT HOLDERS BE LIABLE FOR ANY CLAIM, DAMAGES OR OTHER
  - LIABILITY, WHETHER IN AN ACTION OF CONTRACT, TORT OR OTHERWISE, ARISING FROM,
  - OUT OF OR IN CONNECTION WITH THE SOFTWARE OR THE USE OR OTHER DEALINGS IN THE
  - SOFTWARE.
  -->
<svg data-big="true" width="16px" height="16px" viewBox="0 0 16 16" fill="#BA68C8" xmlns="http://www.w3.org/2000/svg">
  <path fill-rule="evenodd" clip-rule="evenodd"
        d="M13.6541 3.10885C13.9136 3.10158 14.1635 3.09458 14.371 3.04132C14.6092 2.98017 14.7109 2.93819 14.7784 2.9103C14.8499 2.88074 14.8831 2.86703 15 2.86314C15.2067 2.85625 15.3362 2.9826 15.3393 3.20928C15.3492 3.91303 15.2204 4.21242 14.8935 4.51997C14.802 4.60603 14.6933 4.69492 14.5767 4.79025C14.2766 5.03563 13.9242 5.32375 13.6787 5.71656C13.5307 5.95355 13.4499 6.35217 13.3594 6.79865C13.3115 7.03514 13.2608 7.28505 13.196 7.53148C13.1386 7.74972 13.0815 7.98306 13.0245 8.2158C12.9086 8.68974 12.7932 9.16116 12.6771 9.49737C12.4944 10.027 12.6444 11.2289 13.1858 11.3887C12.5688 11.8574 11.5745 11.719 11.2089 11.133C10.8413 11.2339 10.6542 11.5396 10.4667 11.8461C10.3195 12.0865 10.1721 12.3274 9.93701 12.4702C9.50171 12.7344 9.08605 12.8542 8.50927 13.003C8.18864 13.0664 8.00661 13.0546 8.10002 12.9497C8.13232 12.8999 8.16434 12.8511 8.19601 12.8028C8.4601 12.3998 8.69935 12.0347 8.86684 11.5139C8.6923 11.4876 8.51788 11.4603 8.344 11.433C7.25761 11.2625 6.19223 11.0952 5.25026 11.2262C4.6209 11.3137 4.22071 11.6094 3.83322 11.8956C3.70079 11.9935 3.56985 12.0902 3.43175 12.1772C2.26751 12.9103 0.986776 12.7239 0.877661 12.4489C0.812862 12.2856 0.995396 12.1659 1.16339 12.0557C1.26425 11.9895 1.35987 11.9268 1.39359 11.8602C1.14578 11.8946 0.727323 11.8195 0.646336 11.6443C0.585459 11.5127 0.820558 11.2689 0.877661 11.2262C0.989071 11.1429 1.22753 11.0805 1.39134 11.0376C1.42459 11.0289 1.45476 11.0209 1.48018 11.0138C1.75069 10.9382 2.01155 10.9164 2.24983 10.8966C2.62777 10.8651 2.94891 10.8383 3.16172 10.6086C3.38883 10.3635 3.49165 10.1743 3.58699 9.99891C3.69073 9.80804 3.78562 9.63345 4.02211 9.42083C4.60681 8.89531 5.23626 8.43532 6.21826 8.11438C6.50512 8.02063 6.8014 7.94176 7.10409 7.86119C7.83758 7.66594 8.60876 7.46066 9.37511 7.00919C9.95397 6.6682 10.2806 6.11305 10.6267 5.52491C10.7015 5.39777 10.7772 5.26909 10.8566 5.1407L10.8774 5.107C11.3422 4.35487 11.7975 3.61815 12.6043 3.26528C12.9145 3.12957 13.2936 3.11895 13.6541 3.10885ZM15.0633 3.71089C15.1762 3.48336 15.1759 3.28271 15.0644 3.16981C14.9518 3.05579 14.7749 3.10779 14.5718 3.28275L14.5714 3.28132C14.3865 3.39 14.2165 3.41327 14.0244 3.41924C13.9751 3.4208 13.9244 3.42123 13.8716 3.42167C13.7459 3.42271 13.6086 3.42386 13.4511 3.44072C12.2536 3.569 11.733 4.50552 11.193 5.47699C10.899 6.00583 10.5993 6.54503 10.1815 6.96983C10.0952 7.05746 10.002 7.13921 9.90342 7.21593C9.48831 7.53857 8.97904 7.76915 8.51072 7.95583C8.10838 8.11617 7.71656 8.19746 7.33109 8.27743C6.9903 8.34813 6.65448 8.41781 6.32075 8.54016C5.79865 8.73153 5.26814 9.00917 4.8393 9.31527C4.73207 9.39173 4.63105 9.47007 4.53812 9.54935C4.28647 9.76407 4.12129 10.0023 3.96151 10.2474L3.91115 10.3249C3.7634 10.5529 3.61286 10.7851 3.39503 11.008C3.19374 11.2142 2.71027 11.2391 2.21705 11.2646C1.7474 11.2889 1.26889 11.3136 1.01675 11.4957C1.01374 11.4978 1.00994 11.5002 1.0058 11.5029C0.974146 11.5229 0.922062 11.5559 1.04298 11.5958C1.05706 11.6005 1.10483 11.5989 1.17025 11.5967C1.24695 11.5942 1.34791 11.5909 1.44725 11.5958L1.46413 11.5965C1.54913 11.5997 1.81802 11.6097 1.80713 11.7083C1.79696 11.8004 1.71075 11.9329 1.63191 12.0523C1.60089 12.0993 1.55033 12.1488 1.50442 12.1937C1.44086 12.2559 1.38622 12.3094 1.40475 12.3354C2.23383 12.4593 2.78614 12.0976 2.78614 12.0976C2.78614 12.0976 3.86915 11.2319 4.53812 11.008C5.13035 10.8098 5.77016 10.7375 6.41503 10.771C6.63474 10.7825 6.85504 10.8149 7.07424 10.8471C7.27896 10.8772 7.48281 10.9072 7.68424 10.9198C7.81291 10.9278 7.97648 10.966 8.14097 11.0044C8.35639 11.0547 8.57342 11.1053 8.71565 11.0892C8.90259 10.9693 9.0097 10.7049 9.11213 10.452C9.22407 10.1756 9.33041 9.91302 9.52925 9.86815C9.51806 11.1843 9.38011 11.6901 8.83906 12.4537C9.40783 12.3489 9.98197 11.6498 9.98197 11.6498C9.98197 11.6498 11.0024 10.3415 11.108 10.0274C11.2106 10.1095 11.2381 10.2969 11.2647 10.4783C11.2804 10.5857 11.2959 10.6909 11.3264 10.771C11.9977 10.3811 12.2139 9.56367 12.4485 8.67678C12.4884 8.52598 12.5288 8.37313 12.5721 8.22008C12.639 7.9834 12.7047 7.74614 12.7687 7.51482C13.0345 6.55474 13.272 5.69678 13.4511 5.40615C13.6245 5.12475 13.9073 4.92962 14.1711 4.74754C14.2374 4.70183 14.3025 4.65692 14.3643 4.61169C14.687 4.37553 14.9776 4.13016 15.0633 3.71089Z"
  />
  <path fill-rule="evenodd" clip-rule="evenodd"
        d="M12.8363 4.23835C13.0981 4.4754 13.6474 4.28514 13.5492 3.8135C13.1425 3.77838 12.9068 3.92235 12.8363 4.23835Z"
  />
</svg>

<svg xmlns="http://www.w3.org/2000/svg" width="16" height="16" fill="#BA68C8" data-big="true"><path fill-rule="evenodd" d="M13.654 3.109c.26-.007.51-.014.717-.068.238-.06.34-.103.407-.13A.5.5 0 0 1 15 2.862c.207-.007.336.12.34.346.01.704-.12 1.003-.447 1.311-.091.086-.2.175-.316.27-.3.246-.653.534-.898.927-.148.237-.23.635-.32 1.082-.047.236-.098.486-.163.732-.057.219-.114.452-.171.685-.116.474-.232.945-.348 1.281-.183.53-.033 1.732.509 1.892-.617.468-1.611.33-1.977-.256-.368.1-.555.407-.742.713-.148.24-.295.481-.53.624-.435.264-.85.384-1.428.533-.32.063-.502.052-.409-.053l.096-.147c.264-.403.503-.768.67-1.29l-.522-.08c-1.086-.17-2.152-.338-3.094-.207-.63.088-1.03.383-1.417.67a7 7 0 0 1-.401.281c-1.164.733-2.445.547-2.554.272-.065-.163.117-.283.285-.393.101-.066.197-.13.23-.196-.247.035-.666-.04-.747-.216-.06-.131.175-.375.232-.418.111-.083.35-.146.513-.188l.09-.024c.27-.076.53-.098.769-.117.378-.032.699-.059.912-.288.227-.245.33-.435.425-.61.104-.191.199-.366.435-.578.585-.526 1.214-.986 2.196-1.307.287-.093.583-.172.886-.253.734-.195 1.505-.4 2.271-.852.579-.34.906-.896 1.252-1.484q.11-.191.23-.384l.02-.034c.465-.752.92-1.489 1.727-1.842.31-.135.69-.146 1.05-.156m1.41.602c.112-.228.112-.428 0-.541s-.29-.062-.492.113V3.28a1.07 1.07 0 0 1-.548.138q-.074.002-.152.003a4 4 0 0 0-.42.019c-1.198.128-1.719 1.065-2.259 2.036-.294.529-.594 1.068-1.011 1.493q-.13.131-.279.246c-.415.323-.924.553-1.392.74-.403.16-.794.241-1.18.321-.34.071-.677.14-1.01.263a6.5 6.5 0 0 0-1.482.775 4 4 0 0 0-.3.234c-.253.215-.418.453-.577.698l-.05.078c-.149.228-.3.46-.517.683-.201.206-.685.231-1.178.257-.47.024-.948.049-1.2.23l-.011.008c-.032.02-.084.053.037.093a1 1 0 0 0 .127 0c.077-.002.178-.005.277 0h.017c.085.004.354.014.343.112-.01.092-.096.225-.175.344a1 1 0 0 1-.128.142c-.063.062-.118.115-.1.141.83.124 1.382-.237 1.382-.237s1.083-.866 1.752-1.09a5.1 5.1 0 0 1 1.877-.237c.22.011.44.044.66.076.204.03.408.06.61.073.128.008.291.046.456.084.215.05.432.101.575.085.187-.12.294-.384.396-.637.112-.276.218-.539.417-.584-.01 1.316-.149 1.822-.69 2.586.569-.105 1.143-.804 1.143-.804s1.02-1.309 1.126-1.623c.103.083.13.27.157.451.015.108.03.213.061.293.672-.39.888-1.207 1.122-2.094q.059-.227.124-.457l.197-.705c.265-.96.503-1.818.682-2.109.173-.281.456-.476.72-.658q.1-.069.193-.136c.323-.236.614-.482.7-.901" clip-rule="evenodd"/><path fill-rule="evenodd" d="M12.836 4.238c.262.237.811.047.713-.425-.406-.035-.642.11-.713.425" clip-rule="evenodd"/></svg>
